Sources/FrostedUI/Resources/Icons.xcassets/volumeOff32.imageset/volume-off-32.svg

<svg width="32" height="32" viewBox="0 0 32 32" fill="none" xmlns="http://www.w3.org/2000/svg" data-fui-icon="true">
  <path
    fill-rule="evenodd"
    clip-rule="evenodd"
    d="M14.0225 5.15449C15.2852 4.06011 17.25 4.95713 17.25 6.62812V25.3723C17.2497 27.043 15.2851 27.94 14.0225 26.8459L9.63672 23.0441C9.04583 22.532 8.28974 22.2502 7.50781 22.2502H5.5C3.98132 22.2502 2.75016 21.0188 2.75 19.5002V12.5002C2.75 10.9814 3.98122 9.75019 5.5 9.75019H7.50781C8.28967 9.75019 9.04585 9.46827 9.63672 8.95625L14.0225 5.15449ZM15.75 6.62812C15.75 6.24252 15.2963 6.03573 15.0049 6.28828L10.6191 10.09C9.75555 10.8384 8.65056 11.2502 7.50781 11.2502H5.5C4.80964 11.2502 4.25 11.8098 4.25 12.5002V19.5002C4.25016 20.1904 4.80974 20.7502 5.5 20.7502H7.50781C8.65062 20.7502 9.75553 21.1619 10.6191 21.9104L15.0049 25.7121C15.2962 25.9644 15.7497 25.7576 15.75 25.3723V6.62812ZM28.4697 12.4699C28.7626 12.177 29.2374 12.177 29.5303 12.4699C29.823 12.7628 29.8231 13.2376 29.5303 13.5305L27.0605 16.0002L29.5303 18.4699C29.823 18.7628 29.8231 19.2376 29.5303 19.5305C29.2374 19.8232 28.7626 19.8232 28.4697 19.5305L26 17.0607L23.5303 19.5305C23.2374 19.8232 22.7626 19.8232 22.4697 19.5305C22.1769 19.2376 22.177 18.7628 22.4697 18.4699L24.9395 16.0002L22.4697 13.5305C22.1769 13.2376 22.177 12.7628 22.4697 12.4699C22.7626 12.177 23.2374 12.177 23.5303 12.4699L26 14.9396L28.4697 12.4699Z"
    fill="currentColor"
  />
</svg>

<svg xmlns="http://www.w3.org/2000/svg" width="32" height="32" fill="none" data-fui-icon="true" viewBox="0 0 32 32"><path fill="currentColor" fill-rule="evenodd" d="M14.023 5.154c1.262-1.094 3.227-.197 3.227 1.474v18.744c0 1.671-1.965 2.568-3.227 1.474l-4.386-3.802a3.25 3.25 0 0 0-2.13-.794H5.5a2.75 2.75 0 0 1-2.75-2.75v-7A2.75 2.75 0 0 1 5.5 9.75h2.008c.782 0 1.538-.282 2.129-.794zm1.727 1.474a.45.45 0 0 0-.745-.34l-4.386 3.802a4.75 4.75 0 0 1-3.111 1.16H5.5c-.69 0-1.25.56-1.25 1.25v7c0 .69.56 1.25 1.25 1.25h2.008a4.75 4.75 0 0 1 3.111 1.16l4.386 3.802a.45.45 0 0 0 .745-.34zm12.72 5.842a.75.75 0 1 1 1.06 1.06L27.06 16l2.47 2.47a.75.75 0 0 1-1.06 1.06L26 17.06l-2.47 2.47a.75.75 0 0 1-1.06-1.06L24.94 16l-2.47-2.47a.75.75 0 0 1 1.06-1.06L26 14.94z" clip-rule="evenodd"/></svg>
